X: 1
T: Kolomeike
O: Ukraine
B: Kammen v.1 #21 p.23
M: 2/4
L: 1/16
%%slurgraces 1
K: Dm
"A"\
|: "Dm"{a=b^c'}d'2 a4 a2 |  "Gm"g2g2   "A7"a3g \
|1,3 "Dm"fede "A7"fefg | "Dm"a2z2 "A7"a4 \
:|2,4"Dm"fagf "A7"egfe | "Dm"dAfe d2z2 :|
"B"\
|: "A7"e2A2  a3e |  "Dm"gfef gfed \
|  "A7"^c2de A2=Bc |1,3 "Dm"d^cde fefd :|2,4"Dm"dAfe d2z2 :|

%%sep 1 1 500
%%sep 1 1 500

